static/logos/crisp-wordmark-color.svg

<svg width="100" height="28" viewBox="0 0 100 28" fill="none" xmlns="http://www.w3.org/2000/svg">
<g clip-path="url(#clip0_1_3143)">
<path fill-rule="evenodd" clip-rule="evenodd" d="M52.0135 20.5684C52.9798 20.619 53.9437 20.4328 54.8213 20.0259C55.6989 19.619 56.4635 19.0037 57.0483 18.2339L55.1647 16.4685C54.8338 16.9632 54.3831 17.3662 53.8546 17.6402C53.326 17.9144 52.7368 18.0507 52.1414 18.0365C49.7809 18.0365 48.1763 16.2247 48.1763 13.658C48.1763 11.103 49.7809 9.31439 52.1414 9.31439C52.7321 9.28952 53.3196 9.41504 53.8483 9.67915C54.3772 9.94324 54.8301 10.3373 55.1647 10.8242L57.0483 9.11697C56.4664 8.34467 55.7021 7.72836 54.8235 7.32304C53.9449 6.91771 52.9795 6.73602 52.0135 6.79416C48.0368 6.79416 45.2344 9.69766 45.2344 13.658C45.2344 17.63 48.0252 20.5684 52.0135 20.5684ZM62.06 20.2431V11.3004C62.6414 10.348 64.2344 9.53507 65.467 9.53507C65.8158 9.53507 66.0949 9.55829 66.3391 9.61636V6.78256C65.5059 6.81879 64.6908 7.03728 63.9515 7.42258C63.2121 7.80789 62.5664 8.35062 62.06 9.01244V7.10774H59.1996V20.2431H62.06ZM69.7111 5.50501C70.1799 5.50501 70.6295 5.31902 70.961 4.98796C71.2924 4.65689 71.4786 4.20787 71.4786 3.73968C71.4786 3.27149 71.2924 2.82247 70.961 2.49141C70.6295 2.16034 70.1799 1.97437 69.7111 1.97437C69.2424 1.97437 68.7929 2.16034 68.4614 2.49141C68.1299 2.82247 67.9437 3.27149 67.9437 3.73968C67.9437 4.20787 68.1299 4.65689 68.4614 4.98796C68.7929 5.31902 69.2424 5.50501 69.7111 5.50501ZM71.1298 20.2548V7.09613H68.2577V20.2315L71.1298 20.2548ZM78.9786 20.5684C82.5135 20.5684 84.4437 18.803 84.4437 16.4685C84.4437 11.2423 76.4903 12.9844 76.4903 10.6616C76.4903 9.74412 77.4204 9.03566 78.9204 9.03566C80.5832 9.03566 82.0252 9.74412 82.8158 10.6152L84.0135 8.60595C82.6015 7.3874 80.786 6.7374 78.9204 6.78256C75.5949 6.78256 73.746 8.60595 73.746 10.7545C73.746 15.8066 81.6996 13.96 81.6996 16.5499C81.6996 17.5835 80.7926 18.292 79.0832 18.292C77.4288 18.2492 75.8479 17.6002 74.6414 16.4685L73.3391 18.501C74.8768 19.8989 76.9006 20.6408 78.9786 20.5684ZM94.0019 20.5684C92.3391 20.5684 90.874 19.8134 89.7809 18.4197V25.2487H86.9321V7.10774H89.7809V8.90791C90.2689 8.24836 90.9049 7.71244 91.6381 7.34329C92.3712 6.97414 93.1808 6.78207 94.0019 6.78256C97.4088 6.78256 99.8275 9.33763 99.8275 13.658C99.8275 17.9901 97.4088 20.5684 94.0135 20.5684H94.0019ZM93.1647 18.0365C95.4204 18.0365 96.8855 16.2247 96.8855 13.658C96.8855 11.103 95.4204 9.31439 93.1647 9.31439C91.8275 9.31439 90.4437 10.0693 89.7926 11.0565V16.248C90.1783 16.7858 90.6834 17.2272 91.2684 17.5375C91.8535 17.8479 92.5025 18.0185 93.1647 18.0365Z" fill="#1972F5"/>
<path fill-rule="evenodd" clip-rule="evenodd" d="M13.4548 22.0549L18.8385 27.769L23.0479 20.9865L34.2106 19.7669L32.4082 0.185791L0.164062 3.73967L1.97801 23.3208L13.4548 22.0549Z" fill="#1972F5"/>
</g>
<defs>
<clipPath id="clip0_1_3143">
<rect width="100" height="27.8736" fill="white"/>
</clipPath>
</defs>
</svg>

<svg xmlns="http://www.w3.org/2000/svg" width="228.571" height="64" fill="none" viewBox="0 0 100 28"><g fill="#1972F5" fill-rule="evenodd" clip-path="url(#a)" clip-rule="evenodd"><path d="M52.014 20.568a5.937 5.937 0 0 0 5.034-2.334l-1.883-1.766a3.532 3.532 0 0 1-3.024 1.569c-2.36 0-3.965-1.812-3.965-4.379 0-2.555 1.605-4.344 3.965-4.344a3.491 3.491 0 0 1 3.024 1.51l1.883-1.707a5.858 5.858 0 0 0-5.035-2.323c-3.976 0-6.779 2.904-6.779 6.864 0 3.972 2.791 6.91 6.78 6.91Zm10.046-.325V11.3c.581-.952 2.174-1.765 3.407-1.765.349 0 .628.023.872.081V6.783a5.702 5.702 0 0 0-4.279 2.23V7.107H59.2v13.135h2.86Zm7.651-14.738A1.769 1.769 0 0 0 71.48 3.74a1.764 1.764 0 0 0-1.768-1.766 1.768 1.768 0 0 0-1.767 1.766 1.764 1.764 0 0 0 1.767 1.765Zm1.419 14.75V7.096h-2.872v13.136l2.872.023Zm7.849.313c3.534 0 5.465-1.765 5.465-4.1 0-5.226-7.954-3.484-7.954-5.806 0-.918.93-1.626 2.43-1.626 1.663 0 3.105.708 3.896 1.58l1.197-2.01a7.517 7.517 0 0 0-5.093-1.823c-3.325 0-5.174 1.823-5.174 3.971 0 5.053 7.954 3.206 7.954 5.796 0 1.034-.907 1.742-2.617 1.742a6.748 6.748 0 0 1-4.442-1.824l-1.302 2.033a7.971 7.971 0 0 0 5.64 2.067Zm15.023 0c-1.663 0-3.128-.755-4.221-2.148v6.829h-2.849V7.108h2.849v1.8A5.243 5.243 0 0 1 94 6.783c3.408 0 5.826 2.555 5.826 6.875 0 4.332-2.418 6.91-5.814 6.91h-.011Zm-.837-2.532c2.255 0 3.72-1.811 3.72-4.378 0-2.555-1.465-4.344-3.72-4.344-1.338 0-2.721.755-3.372 1.742v5.192a4.29 4.29 0 0 0 3.372 1.788ZM13.455 22.055l5.383 5.714 4.21-6.782 11.163-1.22L32.408.186.164 3.74l1.814 19.58 11.477-1.265Z"/></g><defs><clipPath id="a"><path fill="#fff" d="M0 0h100v27.874H0z"/></clipPath></defs></svg>
